packages/icon/src/svg/video.icon.svg

<svg viewBox="0 0 24 24" xmlns="http://www.w3.org/2000/svg">
<path fill-rule="evenodd" clip-rule="evenodd" d="M21.2 8.1L18 10.5V6C18 5.44772 17.5523 5 17 5H3C2.44772 5 2 5.44772 2 6V18C2 18.5523 2.44772 19 3 19H17C17.5523 19 18 18.5523 18 18V13.5L21.2 15.9C21.2865 15.9649 21.3918 16 21.5 16C21.7761 16 22 15.7761 22 15.5V8.5C22 8.39181 21.9649 8.28655 21.9 8.2C21.7343 7.97909 21.4209 7.93431 21.2 8.1ZM4 17V7H16V17H4Z"/>
</svg>

<svg aria-label="video icon" viewBox="0 0 24 24"><path fill-rule="evenodd" clip-rule="evenodd" d="M21.2 8.1L18 10.5V6a1 1 0 00-1-1H3a1 1 0 00-1 1v12a1 1 0 001 1h14a1 1 0 001-1v-4.5l3.2 2.4a.5.5 0 00.8-.4v-7a.5.5 0 00-.8-.4zM4 17V7h12v10H4z"/></svg>
